X:1
T:The Merry Andrew
H:Anon047
O:April 2003
S:Dave Holland, May 2003
N:Corrupt version
M:4/4
L:1/4
K:Am
A B c d | e2 a2 | g a e g |f g/f/ g/f/e/d/ |
c>d e f | g2 b2 | a ^f g e | d4 |]
